dist/svgs/core-ui-icons/free/cil-applications.svg

<svg xmlns="http://www.w3.org/2000/svg" viewBox="0 0 512 512"><path d="M88 32a64 64 0 1064 64 64.072 64.072 0 00-64-64zm0 96a32 32 0 1132-32 32.036 32.036 0 01-32 32zm168-96a64 64 0 1064 64 64.072 64.072 0 00-64-64zm0 96a32 32 0 1132-32 32.036 32.036 0 01-32 32zm168 32a64 64 0 10-64-64 64.072 64.072 0 0064 64zm0-96a32 32 0 11-32 32 32.036 32.036 0 0132-32zM88 192a64 64 0 1064 64 64.072 64.072 0 00-64-64zm0 96a32 32 0 1132-32 32.036 32.036 0 01-32 32zm168-96a64 64 0 1064 64 64.072 64.072 0 00-64-64zm0 96a32 32 0 1132-32 32.036 32.036 0 01-32 32zm168-96a64 64 0 1064 64 64.072 64.072 0 00-64-64zm0 96a32 32 0 1132-32 32.036 32.036 0 01-32 32zM88 352a64 64 0 1064 64 64.072 64.072 0 00-64-64zm0 96a32 32 0 1132-32 32.036 32.036 0 01-32 32zm168-96a64 64 0 1064 64 64.072 64.072 0 00-64-64zm0 96a32 32 0 1132-32 32.036 32.036 0 01-32 32zm168-96a64 64 0 1064 64 64.072 64.072 0 00-64-64zm0 96a32 32 0 1132-32 32.036 32.036 0 01-32 32z"/></svg>

<svg xmlns="http://www.w3.org/2000/svg" viewBox="0 0 512 512">
  <path fill="var(--ci-primary-color, currentColor)" d="M88,32a64,64,0,1,0,64,64A64.072,64.072,0,0,0,88,32Zm0,96a32,32,0,1,1,32-32A32.036,32.036,0,0,1,88,128Z" class="ci-primary"/>
  <path fill="var(--ci-primary-color, currentColor)" d="M256,32a64,64,0,1,0,64,64A64.072,64.072,0,0,0,256,32Zm0,96a32,32,0,1,1,32-32A32.036,32.036,0,0,1,256,128Z" class="ci-primary"/>
  <path fill="var(--ci-primary-color, currentColor)" d="M424,160a64,64,0,1,0-64-64A64.072,64.072,0,0,0,424,160Zm0-96a32,32,0,1,1-32,32A32.036,32.036,0,0,1,424,64Z" class="ci-primary"/>
  <path fill="var(--ci-primary-color, currentColor)" d="M88,192a64,64,0,1,0,64,64A64.072,64.072,0,0,0,88,192Zm0,96a32,32,0,1,1,32-32A32.036,32.036,0,0,1,88,288Z" class="ci-primary"/>
  <path fill="var(--ci-primary-color, currentColor)" d="M256,192a64,64,0,1,0,64,64A64.072,64.072,0,0,0,256,192Zm0,96a32,32,0,1,1,32-32A32.036,32.036,0,0,1,256,288Z" class="ci-primary"/>
  <path fill="var(--ci-primary-color, currentColor)" d="M424,192a64,64,0,1,0,64,64A64.072,64.072,0,0,0,424,192Zm0,96a32,32,0,1,1,32-32A32.036,32.036,0,0,1,424,288Z" class="ci-primary"/>
  <path fill="var(--ci-primary-color, currentColor)" d="M88,352a64,64,0,1,0,64,64A64.072,64.072,0,0,0,88,352Zm0,96a32,32,0,1,1,32-32A32.036,32.036,0,0,1,88,448Z" class="ci-primary"/>
  <path fill="var(--ci-primary-color, currentColor)" d="M256,352a64,64,0,1,0,64,64A64.072,64.072,0,0,0,256,352Zm0,96a32,32,0,1,1,32-32A32.036,32.036,0,0,1,256,448Z" class="ci-primary"/>
  <path fill="var(--ci-primary-color, currentColor)" d="M424,352a64,64,0,1,0,64,64A64.072,64.072,0,0,0,424,352Zm0,96a32,32,0,1,1,32-32A32.036,32.036,0,0,1,424,448Z" class="ci-primary"/>
</svg>
